actions/22/view-calendar-upcoming-events.svg

<svg xmlns="http://www.w3.org/2000/svg" viewBox="0 0 22 22">
  <defs id="defs3051">
<style type="text/css" id="current-color-scheme">.ColorScheme-Text {color:#fcfcfc;}</style>
  </defs>
 <path 
     style="fill:currentColor;fill-opacity:1;stroke:none" 
     d="M 6,3 C 6,3 5,2.99997 5,4 5,4 3,4 3,6 3,8 3,7 3,7 v 9 c 0,0 0,3 3,3 3,0 7,0 10,0 3,0 3,-3 3,-3 V 7 C 19,7 19,8 19,6 19,4 17,4 17,4 17,2.99997 16,3 16,3 h -3 c 0,0 -1,-3e-5 -1,1 H 10 C 10,2.99997 9,3 9,3 Z M 6,4 H 9 V 5 H 6 Z m 7,0 h 3 V 5 H 13 Z M 4,9 c 0,0 0,-2 2,-2 2,0 8,0 10,0 2,0 2,2 2,2 v 7 c 0,0 0,2 -2,2 -2,0 -8,0 -10,0 -2,0 -2,-2 -2,-2 z m 1,0 v 2 H 7 V 9 Z m 4,0 v 2 h 2 V 9 Z m 4,0 v 2 h 2 V 9 Z m -4,3 v 2 h 2 v -2 z m 4,0 v 2 h 2 v -2 z"
     class="ColorScheme-Text"
     />
 <path 
     style="fill:#da4453;fill-opacity:1;stroke:none" 
     d="M 16 9 L 16 14 L 17 14 L 17 9 L 16 9 z M 16 15 L 16 16 L 17 16 L 17 15 L 16 15 z "
     />
</svg>

<svg xmlns="http://www.w3.org/2000/svg" viewBox="0 0 22 22">
  <defs id="defs3051">
    <style type="text/css" id="current-color-scheme">
      .ColorScheme-Text {
        color:#eff0f1;
      }
      </style>
  </defs>
 <path 
     style="fill:currentColor;fill-opacity:1;stroke:none" 
     d="M 6 3 C 6 3 5 2.99997 5 4 L 3 4 L 3 7 L 3 18 L 3 19 L 19 19 L 19 18 L 19 7 L 19 4 L 17 4 C 17 2.99997 16 3 16 3 L 13 3 C 13 3 12 2.99997 12 4 L 10 4 C 10 2.99997 9 3 9 3 L 6 3 z M 6 4 L 9 4 L 9 5 L 6 5 L 6 4 z M 13 4 L 16 4 L 16 5 L 13 5 L 13 4 z M 4 7 L 18 7 L 18 18 L 4 18 L 4 7 z M 5 9 L 5 11 L 7 11 L 7 9 L 5 9 z M 9 9 L 9 11 L 11 11 L 11 9 L 9 9 z M 13 9 L 13 11 L 15 11 L 15 9 L 13 9 z M 9 12 L 9 14 L 11 14 L 11 12 L 9 12 z M 13 12 L 13 14 L 15 14 L 15 12 L 13 12 z "
     class="ColorScheme-Text"
     />
 <path 
     style="fill:#da4453;fill-opacity:1;stroke:none" 
     d="M 16 9 L 16 14 L 17 14 L 17 9 L 16 9 z M 16 15 L 16 16 L 17 16 L 17 15 L 16 15 z "
     />
</svg>
